X:14403
T:MacPherson's Lament
H:
C: Trad (Collection of Scots Tunes 3, 1762)
B: Rawlins' Cross - A Turn of the Wheel (1989)
O:Kevin Fraser
Z:Kevin Fraser
Q:1/4=90
K:HP
M:4/4
L:1/4
R:March
U: R = ///
U: r = //
U: V = !accent!
V:M gstem=up stem=down name="Melody"
V:H gstem=up stem=down name="Harmony"
V:C gstem=up stem=down name="C-Harmony"
V:S gstem=up stem=down dyn=up stafflines=1 clef=perc middle=G name="Snare" sname="Snare"" sname="Snare"
V:B gstem=up stem=down clef=none dyn=up name="Bass"
V:T gstem=up stem=down clef=none dyn=up name="Tenor"
V:BB gstem=up stem=down name="Brass Bass" sname="ABCD-C" transpose=-1  octave=-1 clef=bass
V:BC gstem=up stem=down name="Brass Chord" sname="ABCD-D" transpose=-1
V:BD gstem=up stem=down name="Brass Chord 2" sname="ABCD-B" transpose=-1
V:P gstem=up stem=down name="Piano" octave=-1
I:MIDI=program 110
%%MIDI gracedivider 4
% %MIDI gchord
%%MIDI beatstring 
% %alignbars 80
% %landscape
% abc2xml.py percussion maps
I:percmap C D 52 triangle
I:percmap A * 60 x
I:percmap c * 47 diamond
I:linebreak $
%
% abcm2ps / abc2svg percussion maps
%
%%map drummap C print=D heads=triangle
%%map drummap A heads=x_head
%%map drummap c heads=diamond
%
% %score {M H}
%%score {M}
%%MIDI program 109 #bagpipes
%%MIDI vol 100
V:M
[|  {g}A/B/| {Gdc}d {e}A {gfg}f   {g}e/d/   | {g}e/d/ {g}e/f/ {gef}e {g}A/B/ | {Gdc}d  {e}A {gfg}f    {g}e/d/ | {gBd}B3 {g}A/B/ | $
V:M
 z         | {Gdc}d {e}A {gfg}f   {g}e/d/   | {g}e/d/ {g}e/f/ {gef}e {g}A/B/ | {Gdc}(d d/)f/ {gef}e/d/ {g}B    | {G}A3           |] $ 
V:M
[| {g}f/g/ | {ag}(a a/)f/ {gf}g/f/ {gef}e/d/ | {gfg}f  e       {A}e   {g}f/g/ | {ag}(a  a/)f/ {gef}e    d       | {gBd}B3 {g}f/g/ | $
V:M
    z      | {ag}(a a/)f/ {gf}g/f/ {gef}e/d/ | {gfg}f  e       {A}e   {g}A/B/ | {Gdc}(d d/)f/ {gef}e/d/ {g}B    | {G}A3           |]  $
W: Jamie Macpherson (1675 - 1700) also known as James Macpherson was a Scottish outlaw, 
W: famed for his poetic work commonly called "Macpherson's Lament" said to have been composed 
W: by him on the eve of his execution. "Macpherson's Lament" is known also was "Macpherson's Rant" or "Macpherson's Farewell".
W:
W: Performed by Rawlins' Cross - A Turn of the Wheel (1989)
W:
W: ASPD plays this as a slow solo, followed by the band playing it twice through as a march.


